src/icons/outline/symbols/settings.svg

<svg width="24" height="24" viewBox="0 0 24 24" fill="none" xmlns="http://www.w3.org/2000/svg">
<g clip-path="url(#clip0_4704_656)">
<path fill-rule="evenodd" clip-rule="evenodd" d="M12.0002 8.50977C14.0066 8.50977 15.6447 10.0738 15.6447 11.9902C15.6446 13.9066 14.0065 15.4707 12.0002 15.4707C9.99393 15.4706 8.3567 13.9065 8.35661 11.9902C8.35661 10.0739 9.99387 8.50987 12.0002 8.50977ZM12.0002 9.98535C10.8333 9.98546 9.89177 10.8854 9.89177 12C9.89184 13.1145 10.8333 14.0136 12.0002 14.0137C13.1671 14.0137 14.1095 13.1146 14.1095 12C14.1095 10.8854 13.1876 9.98535 12.0002 9.98535Z" fill="#3C3B44"/>
<path fill-rule="evenodd" clip-rule="evenodd" d="M13.5558 1C14.3645 1 15.0708 1.54789 15.2345 2.32031L15.6447 4.45117C16.1359 4.66622 16.6168 4.93041 17.0568 5.2334L19.1662 4.50977C19.944 4.25583 20.7934 4.55905 21.2131 5.21387L22.7795 7.75586C23.1786 8.45974 23.0253 9.29134 22.4113 9.80957L20.6916 11.2178C20.7223 11.4719 20.7321 11.7361 20.7424 12C20.7423 12.2639 20.7223 12.5281 20.6916 12.792L22.4113 14.1992C22.9948 14.7174 23.1475 15.4904 22.8097 16.1455L21.2238 18.7852C20.8041 19.4207 20.0356 19.7043 19.3088 19.5186L17.1388 18.7754C16.6988 19.0784 16.2179 19.3425 15.7267 19.5576L15.3166 21.6699C15.1425 22.4617 14.4161 23.0185 13.5871 22.999H10.4445V22.9893C9.64613 22.9893 8.93991 22.4422 8.76579 21.6699L8.35563 19.5381C7.86441 19.323 7.38359 19.0589 6.94353 18.7559L4.83415 19.4795C4.05624 19.7335 3.20693 19.4304 2.78728 18.7754L1.22087 16.2432C0.821699 15.5392 0.974881 14.7076 1.58903 14.1895L3.30876 12.7822C3.27862 12.5327 3.26901 12.2733 3.25895 12.0234L3.25798 12.0098C3.25798 11.7361 3.27807 11.4719 3.30876 11.208L1.59978 9.81934C0.995941 9.29146 0.832146 8.47046 1.20036 7.80566L2.77653 5.22363C3.16553 4.54901 4.01567 4.22629 4.80388 4.46094L6.95329 5.2334C7.38318 4.94011 7.83356 4.67603 8.31462 4.46094L8.72478 2.33984C8.89879 1.53814 9.6354 1.00007 10.4543 1H13.5558ZM13.5558 2.4668H10.4543C10.3622 2.46687 10.2707 2.5254 10.2502 2.61328L9.76872 5.09668C9.71754 5.34112 9.55346 5.54676 9.30778 5.64453C8.68351 5.8987 8.10025 6.22131 7.57829 6.63184C7.36332 6.79805 7.08616 6.83702 6.83024 6.74902L4.32243 5.84961C4.27122 5.83997 4.17921 5.86923 4.1281 5.94727L2.55192 8.51855C2.55192 8.51855 2.55203 8.65618 2.61345 8.71484L4.63005 10.3477C4.83457 10.5139 4.93706 10.7684 4.88591 11.0225C4.83476 11.345 4.80388 11.6775 4.80388 12.0098C4.80389 12.3226 4.83474 12.6452 4.88591 12.9678C4.92682 13.2219 4.83471 13.4764 4.63005 13.6426L2.6027 15.3047C2.5415 15.3536 2.52096 15.4512 2.56169 15.5195L4.10759 18.0322C4.14853 18.1007 4.24104 18.1299 4.33317 18.1006L6.82048 17.2402C6.90234 17.2109 6.99449 17.2012 7.07634 17.2012C7.25022 17.2012 7.41402 17.25 7.54704 17.3574C8.08958 17.7681 8.68338 18.0915 9.32829 18.3457C9.57383 18.4434 9.74771 18.6483 9.79899 18.8926L10.2804 21.3955C10.2907 21.4639 10.3729 21.5234 10.465 21.5234H13.6076C13.7303 21.5234 13.7912 21.4639 13.8117 21.376L14.2931 18.8926C14.3444 18.6484 14.5184 18.4435 14.7638 18.3457C15.3985 18.1013 16.0025 17.7681 16.5451 17.3574C16.7498 17.2011 17.0368 17.162 17.2824 17.2402L19.7804 18.1006C19.788 18.0983 19.8837 18.0686 19.923 18.0029L21.4689 15.4414C21.4689 15.4388 21.4681 15.3237 21.4074 15.2754L19.4015 13.623C19.1968 13.4568 19.1047 13.2025 19.1457 12.9482C19.1968 12.6257 19.2277 12.303 19.2277 11.9805C19.2277 11.6677 19.1968 11.345 19.1457 11.0225C19.1047 10.7682 19.1968 10.5139 19.4015 10.3477L21.4279 8.68555C21.4893 8.63666 21.5099 8.53817 21.4689 8.46973L19.923 5.95703C19.882 5.88886 19.7903 5.85953 19.6984 5.88867L17.2111 6.74902C16.9655 6.83701 16.6888 6.78821 16.4738 6.63184C15.9313 6.22122 15.3374 5.88896 14.6925 5.64453C14.4469 5.54676 14.273 5.34112 14.2218 5.09668L13.7404 2.59375C13.7199 2.52531 13.6172 2.43746 13.5558 2.4668Z" fill="#3C3B44"/>
</g>
<defs>
<clipPath id="clip0_4704_656">
<rect width="24" height="24" fill="white"/>
</clipPath>
</defs>
</svg>

<svg xmlns="http://www.w3.org/2000/svg" width="24" height="24" fill="none" viewBox="0 0 24 24"><g clip-path="url(#a)"><path fill="currentColor" d="M13.556 1c.808 0 1.515.548 1.678 1.32l.41 2.131c.492.215.973.48 1.413.782l2.109-.723c.778-.254 1.627.05 2.047.704l1.566 2.542c.4.704.246 1.535-.368 2.054l-1.72 1.408c.031.254.041.518.051.782 0 .264-.02.528-.05.792l1.72 1.407c.583.518.735 1.291.398 1.946l-1.586 2.64c-.42.636-1.189.92-1.915.734l-2.17-.744c-.44.303-.921.568-1.412.783l-.41 2.112c-.175.792-.901 1.348-1.73 1.329h-3.143v-.01c-.798 0-1.504-.547-1.678-1.32l-.41-2.13a8.6 8.6 0 0 1-1.413-.783l-2.109.724c-.778.253-1.627-.05-2.047-.705l-1.566-2.532a1.6 1.6 0 0 1 .368-2.053l1.72-1.408c-.031-.254-.041-.518-.051-.772 0-.274.02-.538.05-.802L1.6 9.819C.996 9.291.832 8.47 1.2 7.806l1.576-2.582c.39-.675 1.24-.998 2.028-.763l2.15.772c.429-.293.88-.557 1.36-.772l.41-2.121C8.9 1.538 9.636 1 10.455 1zm0 1.467h-3.102c-.092 0-.184.058-.204.146l-.481 2.484a.75.75 0 0 1-.461.548 7.1 7.1 0 0 0-1.73.987.79.79 0 0 1-.748.117l-2.508-.9c-.051-.009-.143.02-.194.098L2.552 8.52s0 .137.061.196l2.017 1.633c.204.166.307.42.256.675a6 6 0 0 0-.082.987q.002.472.082.958a.72.72 0 0 1-.256.675l-2.027 1.662a.17.17 0 0 0-.041.215l1.545 2.512c.041.069.134.098.226.069l2.487-.86a.8.8 0 0 1 .256-.04c.174 0 .338.049.47.156a7.5 7.5 0 0 0 1.782.989.76.76 0 0 1 .47.547l.482 2.502c.01.069.093.128.185.128h3.142c.123 0 .184-.06.205-.147l.481-2.483a.76.76 0 0 1 .47-.547 7.3 7.3 0 0 0 1.782-.989.83.83 0 0 1 .737-.117l2.498.86c.008-.002.104-.031.143-.097l1.546-2.562c0-.002-.001-.117-.062-.166l-2.006-1.652a.71.71 0 0 1-.256-.675q.08-.483.082-.968c0-.312-.03-.635-.082-.957a.71.71 0 0 1 .256-.675l2.027-1.662a.174.174 0 0 0 .04-.216l-1.545-2.513c-.041-.068-.133-.097-.225-.068l-2.487.86a.8.8 0 0 1-.737-.117 7.1 7.1 0 0 0-1.782-.987.76.76 0 0 1-.47-.548l-.482-2.503c-.02-.069-.123-.157-.184-.127M12 8.51c2.006 0 3.645 1.564 3.645 3.48 0 1.917-1.639 3.48-3.645 3.48s-3.643-1.564-3.644-3.48c0-1.916 1.638-3.48 3.644-3.48m0 1.475c-1.167 0-2.108.9-2.108 2.015 0 1.114.941 2.014 2.108 2.014s2.11-.9 2.11-2.014c0-1.115-.922-2.015-2.11-2.015"/></g><defs><clipPath id="a"><path fill="currentColor" d="M0 0h24v24H0z"/></clipPath></defs></svg>
